docs/.vuepress/public/svg/digitalocean.svg

<svg width="100%" height="100%" viewBox="0 0 2550 1275" xmlns="http://www.w3.org/2000/svg" xml:space="preserve"
    style="fill-rule:evenodd;clip-rule:evenodd;stroke-linejoin:round;stroke-miterlimit:2">
    <path
        d="M2550 191.25v892.5c0 105.55-85.7 191.25-191.25 191.25H191.25C85.696 1275 0 1189.3 0 1083.75v-892.5C0 85.696 85.696 0 191.25 0h2167.5C2464.3 0 2550 85.696 2550 191.25Z"
        style="fill:#f2f2f2" />
    <path
        d="M209.98 421.828v-82.036c86.976 0 154.067-85.753 120.534-176.497a122.32 122.32 0 0 0-73.303-73.303A129.595 129.595 0 0 0 211.6 81.7c-70.803 0-129.171 58.025-129.589 128.826H0c0-136.727 132.959-244.86 278.318-200.1C341.664 30.324 391.392 80.06 411.277 143.41c44.736 145.434-63.373 278.418-201.297 278.418Z"
        style="fill:#0080ff;fill-rule:nonzero" transform="translate(25 426.5)" />
    <path
        d="M211.228 339.792h-82.011v-80.788h82.011m-82.011 144.187H67.091v-63.399h62.126v63.399m-62.126-63.399H14.97v-52.195h52.121m682.16-165.32c-23.602-16.167-54.665-24.95-89.471-24.95h-75.773v242.366h75.798c34.797 0 64.621-8.7 89.471-26.098a95.095 95.095 0 0 0 31.063-38.523c7.485-16.168 11.178-36.053 11.178-57.186 0-21.133-3.718-41.018-11.178-55.938-7.485-18.538-17.415-30.963-31.088-39.671Zm-120.508 16.168h23.602c26.098 0 48.453 4.99 65.844 16.168 18.637 11.177 27.445 32.435 27.445 63.398s-9.98 53.443-27.445 65.868c-16.143 9.98-37.276 16.168-64.621 16.168h-24.825V138.445M844.935 93.71a25.285 25.285 0 0 0-18.638 7.485 22.469 22.469 0 0 0-8.707 18.637c0 14.317 11.781 26.098 26.098 26.098 14.316 0 26.097-11.781 26.097-26.098a25.304 25.304 0 0 0-7.485-18.637c-3.717-4.99-9.98-7.485-17.465-7.485m-22.455 74.575h43.488V338.57h-43.313V168.285m198.805 14.97c-12.48-11.177-27.448-18.637-43.491-18.637a76.932 76.932 0 0 0-58.408 24.95 86.583 86.583 0 0 0-23.603 60.903c0 23.628 7.485 44.736 22.455 60.903 14.97 16.168 34.781 23.628 58.409 23.628a68.776 68.776 0 0 0 42.238-13.673v3.718c0 13.673-3.71 24.95-11.18 32.435-7.46 7.485-17.461 11.178-31.058 11.178-19.961 0-32.311-7.485-47.206-28.593l-29.94 28.593 1.247 1.247c6.213 8.708 16.143 17.465 28.568 26.098s28.568 12.475 47.206 12.475c26.103 0 45.983-7.485 60.873-23.628 14.9-16.142 23.61-36.053 23.61-62.15V168.285h-42.19v14.97h2.49m-11.17 100.674c-7.49 8.708-17.47 12.475-29.946 12.475-12.475 0-22.455-3.717-29.94-12.475-7.485-8.757-11.177-19.96-11.177-33.558 0-13.598 3.967-24.925 11.452-33.632 7.485-8.708 17.465-12.476 29.94-12.476 12.475 0 22.451 3.718 29.941 12.476 7.48 8.757 11.18 19.96 11.18 33.557 0 13.598-3.72 24.951-11.18 33.558m90.69-115.594h43.49v170.285h-43.76v-170.26m21.13-74.575c-.21-.006-.42-.008-.63-.008-13.98 0-25.48 11.499-25.48 25.474 0 .21.01.421.01.631 0 14.317 11.78 26.098 26.1 26.098 14.32 0 26.1-11.781 26.1-26.098 0-.21.01-.421.01-.632 0-13.974-11.5-25.474-25.48-25.474-.22 0-.43.003-.65.009m115.52 28.567h-42.2v46.008h-24.95v38.523h24.95v70.859c0 22.455 4.99 38.523 13.68 47.23 8.68 8.708 24.95 13.673 45.98 13.673 7.07.205 14.14-.213 21.13-1.248h2.5v-38.548l-14.97 1.248c-9.98 0-17.47-1.248-19.96-4.99-3.72-3.718-4.99-11.178-4.99-22.455v-64.521h39.77v-38.548h-39.65l-1.29-47.231m241.04-24.95h43.49v242.366h-43.44V97.477m477.14 181.462a143.84 143.84 0 0 1-21.13 19.96 42.888 42.888 0 0 1-22.45 6.213 42.422 42.422 0 0 1-30.94-13.798c-8.71-9.98-12.48-21.132-12.48-36.053 0-14.92 3.72-26.097 12.48-36.052a38.215 38.215 0 0 1 31.06-13.673c13.67 0 28.57 8.708 40.99 23.628l28.57-27.445c-18.64-23.628-42.24-34.806-70.83-34.806-23.61 0-43.49 8.708-60.88 26.098a90.333 90.333 0 0 0-24.95 63.398c0 24.95 8.71 47.231 24.95 63.398a80.847 80.847 0 0 0 60.88 26.098c31.06 0 55.91-13.672 73.3-38.523l-28.57-28.593m175.2-85.753a65.41 65.41 0 0 0-24.95-19.96 81.043 81.043 0 0 0-36.02-7.485c-23.61 0-43.49 8.707-58.41 26.098a99.814 99.814 0 0 0-21.14 63.398c0 26.098 7.49 47.23 23.61 63.398 16.11 16.168 36.02 24.95 62.12 24.95 28.57 0 52.2-11.178 70.84-34.805l1.24-1.248-28.56-27.445c-2.5 3.718-6.22 6.213-9.98 9.98a37.985 37.985 0 0 1-12.48 8.708 40.82 40.82 0 0 1-21.13 4.99 47.837 47.837 0 0 1-29.94-9.98c-7.49-6.213-11.18-14.97-12.48-26.098H2148v-16.168a92.653 92.653 0 0 0-4.99-32.435 56.266 56.266 0 0 0-12.47-26.098m-92.77 40.07a44.094 44.094 0 0 1 11.18-19.96 29.972 29.972 0 0 1 22.46-8.707c9.98 0 18.64 2.495 23.6 8.707 4.99 4.99 7.48 12.475 8.71 19.96h-65.95m258.46-50.973c-12.47-11.178-31.06-16.168-53.42-16.168a108.815 108.815 0 0 0-39.72 8.733c-11.17 6.213-22.45 14.97-28.56 27.445l27.44 26.098c11.18-18.638 23.6-24.95 40.99-24.95a34.69 34.69 0 0 1 22.46 7.485 22.477 22.477 0 0 1 8.71 18.638v8.707a95.19 95.19 0 0 0-31.07-4.99c-21.12 0-38.52 4.99-52.19 14.97-13.67 9.98-19.96 24.95-19.96 42.266 0 16.167 4.99 28.592 16.14 38.523 11.15 9.93 24.95 13.672 40.99 13.672 16.05 0 31.07-6.212 45.99-17.465v13.673h42.24V229.189c0-19.96-6.22-36.053-19.96-47.231m-75.8 91.966c4.99-3.717 11.18-4.99 19.96-4.99 11.03.372 21.93 2.468 32.31 6.213v16.167a54.9 54.9 0 0 1-37.28 13.673c-7.48 0-13.67-1.247-17.46-4.99-3.79-3.743-6.21-7.485-6.21-12.475a20.379 20.379 0 0 1 8.7-13.673m260.83-89.421c-12.47-13.673-28.57-19.96-49.7-19.96-17.4 0-31.06 4.99-40.99 14.97v-9.98h-42.27v170.285h43.49v-94.412c0-12.475 2.5-23.627 8.71-31.063a31.315 31.315 0 0 1 24.95-11.177 27.294 27.294 0 0 1 22.45 9.98 44.876 44.876 0 0 1 8.71 27.445v99.426H2500v-99.576c-1.25-23.619-7.46-42.265-18.64-55.938m-1056.16-2.495c-12.47-11.178-31.06-16.168-53.42-16.168a108.8 108.8 0 0 0-39.77 8.708c-11.17 6.213-22.45 14.97-28.57 27.445l27.45 26.098c11.18-18.638 23.6-24.95 40.99-24.95a34.708 34.708 0 0 1 22.46 7.485 22.477 22.477 0 0 1 8.71 18.638v8.707a95.19 95.19 0 0 0-31.07-4.99c-21.12 0-38.52 4.99-52.19 14.97-13.67 9.98-19.96 24.95-19.96 42.266 0 16.167 4.99 28.593 16.14 38.523 11.15 9.93 24.95 13.672 40.99 13.672 16.05 0 31.07-6.212 45.99-17.465v13.673h42.24V229.189c0-19.96-7.49-36.053-19.96-47.231m-77.05 91.966c4.99-3.717 11.18-4.99 19.96-4.99 11.03.372 21.93 2.468 32.31 6.213v16.167a54.892 54.892 0 0 1-37.27 13.673c-7.49 0-13.68-1.247-17.47-4.99-3.79-3.743-6.21-7.485-6.21-12.475a37.033 37.033 0 0 1 8.71-13.673m329.34 69.611h-.05c-68.19 0-124.3-56.112-124.3-124.301 0-68.19 56.11-124.302 124.3-124.302s124.3 56.112 124.3 124.302c-.25 68.078-56.18 124.029-124.25 124.301m0-206.312h-.13c-44.32 0-80.79 36.469-80.79 80.788 0 44.319 36.47 80.788 80.79 80.788 44.3 0 80.76-36.438 80.79-80.738v-.175c0-44.223-36.39-80.614-80.61-80.614l-.15.001"
        style="fill:#0080ff;fill-rule:nonzero" transform="translate(25 426.5)" />
</svg>

<?xml version="1.0" encoding="UTF-8" standalone="no"?>
<!DOCTYPE svg PUBLIC "-//W3C//DTD SVG 1.1//EN" "http://www.w3.org/Graphics/SVG/1.1/DTD/svg11.dtd">
<svg width="100%" height="100%" viewBox="0 0 2550 1275" version="1.1" xmlns="http://www.w3.org/2000/svg" xmlns:xlink="http://www.w3.org/1999/xlink" xml:space="preserve" xmlns:serif="http://www.serif.com/" style="fill-rule:evenodd;clip-rule:evenodd;stroke-linejoin:round;stroke-miterlimit:2;">
    <path d="M2550,191.25L2550,1083.75C2550,1189.3 2464.3,1275 2358.75,1275L191.25,1275C85.696,1275 0,1189.3 0,1083.75L0,191.25C0,85.696 85.696,0 191.25,0L2358.75,0C2464.3,0 2550,85.696 2550,191.25Z" style="fill:rgb(242,242,242);"/>
    <g transform="matrix(1,0,0,1,25,426.5)">
        <path d="M209.98,421.828L209.98,339.792C296.956,339.792 364.047,254.039 330.514,163.295C318.169,129.218 291.288,102.337 257.211,89.992C242.629,84.509 227.178,81.7 211.6,81.7C140.797,81.7 82.429,139.725 82.011,210.526L0,210.526C0,73.799 132.959,-34.334 278.318,10.426C341.664,30.324 391.392,80.06 411.277,143.41C456.013,288.844 347.904,421.828 209.98,421.828Z" style="fill:rgb(0,128,255);fill-rule:nonzero;"/>
        <path d="M211.228,339.792L129.217,339.792L129.217,259.004L211.228,259.004M129.217,403.191L67.091,403.191L67.091,339.792L129.217,339.792L129.217,403.191M67.091,339.792L14.97,339.792L14.97,287.597L67.091,287.597M749.251,122.277C725.649,106.11 694.586,97.327 659.78,97.327L584.007,97.327L584.007,339.693L659.805,339.693C694.602,339.693 724.426,330.993 749.276,313.595C762.848,303.721 773.567,290.428 780.339,275.072C787.824,258.904 791.517,239.019 791.517,217.886C791.517,196.753 787.799,176.868 780.339,161.948C772.854,143.41 762.924,130.985 749.251,122.277ZM628.743,138.445L652.345,138.445C678.443,138.445 700.798,143.435 718.189,154.613C736.826,165.79 745.634,187.048 745.634,218.011C745.634,248.974 735.654,271.454 718.189,283.879C702.046,293.859 680.913,300.047 653.568,300.047L628.743,300.047L628.743,138.445M844.935,93.71C837.959,93.523 831.207,96.235 826.297,101.195C820.557,105.63 817.309,112.583 817.59,119.832C817.59,134.149 829.371,145.93 843.688,145.93C858.004,145.93 869.785,134.149 869.785,119.832C869.969,112.856 867.258,106.106 862.3,101.195C858.583,96.205 852.32,93.71 844.835,93.71M822.38,168.285L865.868,168.285L865.868,338.57L822.555,338.57L822.555,168.285M1021.36,183.255C1008.88,172.078 993.912,164.618 977.869,164.618C955.726,164.13 934.418,173.232 919.461,189.568C903.947,206.001 895.47,227.875 895.858,250.471C895.858,274.099 903.343,295.207 918.313,311.374C933.283,327.542 953.094,335.002 976.722,335.002C991.923,335.24 1006.78,330.43 1018.96,321.329L1018.96,325.047C1018.96,338.72 1015.25,349.997 1007.78,357.482C1000.32,364.967 990.319,368.66 976.722,368.66C956.761,368.66 944.411,361.175 929.516,340.067L899.576,368.66L900.823,369.907C907.036,378.615 916.966,387.372 929.391,396.005C941.816,404.638 957.959,408.48 976.597,408.48C1002.7,408.48 1022.58,400.995 1037.47,384.852C1052.37,368.71 1061.08,348.799 1061.08,322.702L1061.08,168.285L1018.89,168.285L1018.89,183.255L1021.38,183.255M1010.21,283.929C1002.72,292.637 992.74,296.404 980.264,296.404C967.789,296.404 957.809,292.687 950.324,283.929C942.839,275.172 939.147,263.969 939.147,250.371C939.147,236.773 943.114,225.446 950.599,216.739C958.084,208.031 968.064,204.263 980.539,204.263C993.014,204.263 1002.99,207.981 1010.48,216.739C1017.96,225.496 1021.66,236.699 1021.66,250.296C1021.66,263.894 1017.94,275.247 1010.48,283.854M1101.17,168.26L1144.66,168.26L1144.66,338.545L1100.9,338.545L1100.9,168.285M1122.03,93.71C1121.82,93.704 1121.61,93.702 1121.4,93.702C1107.42,93.702 1095.92,105.201 1095.92,119.176C1095.92,119.386 1095.93,119.597 1095.93,119.807C1095.93,134.124 1107.71,145.905 1122.03,145.905C1136.35,145.905 1148.13,134.124 1148.13,119.807C1148.13,119.597 1148.14,119.386 1148.14,119.175C1148.14,105.201 1136.64,93.701 1122.66,93.701C1122.44,93.701 1122.23,93.704 1122.01,93.71M1237.53,122.277L1195.33,122.277L1195.33,168.285L1170.38,168.285L1170.38,206.808L1195.33,206.808L1195.33,277.667C1195.33,300.122 1200.32,316.19 1209.01,324.897C1217.69,333.605 1233.96,338.57 1254.99,338.57C1262.06,338.775 1269.13,338.357 1276.12,337.322L1278.62,337.322L1278.62,298.774L1263.65,300.022C1253.67,300.022 1246.18,298.774 1243.69,295.032C1239.97,291.314 1238.7,283.854 1238.7,272.577L1238.7,208.056L1278.47,208.056L1278.47,169.508L1238.82,169.508L1237.53,122.277M1478.57,97.327L1522.06,97.327L1522.06,339.693L1478.62,339.693L1478.62,97.477M1955.76,278.939C1949.41,286.288 1942.33,292.975 1934.63,298.899C1927.86,303.002 1920.09,305.153 1912.18,305.112C1900.4,305.009 1889.18,300.007 1881.24,291.314C1872.53,281.334 1868.76,270.182 1868.76,255.261C1868.76,240.341 1872.48,229.164 1881.24,219.209C1888.88,210.056 1900.39,204.991 1912.3,205.536C1925.97,205.536 1940.87,214.244 1953.29,229.164L1981.86,201.719C1963.22,178.091 1939.62,166.913 1911.03,166.913C1887.42,166.913 1867.54,175.621 1850.15,193.011C1833.88,210.07 1824.92,232.838 1825.2,256.409C1825.2,281.359 1833.91,303.64 1850.15,319.807C1865.77,336.796 1887.95,346.303 1911.03,345.905C1942.09,345.905 1966.94,332.233 1984.33,307.382L1955.76,278.789M2130.96,193.036C2124.42,184.423 2115.85,177.564 2106.01,173.076C2094.74,167.853 2082.41,165.292 2069.99,165.591C2046.38,165.591 2026.5,174.298 2011.58,191.689C1997.46,209.761 1989.99,232.158 1990.44,255.087C1990.44,281.185 1997.93,302.317 2014.05,318.485C2030.16,334.653 2050.07,343.435 2076.17,343.435C2104.74,343.435 2128.37,332.257 2147.01,308.63L2148.25,307.382L2119.69,279.937C2117.19,283.655 2113.47,286.15 2109.71,289.917C2106.18,293.633 2101.93,296.596 2097.23,298.625C2090.77,302.165 2083.46,303.89 2076.1,303.615C2065.28,303.771 2054.72,300.252 2046.16,293.635C2038.67,287.422 2034.98,278.665 2033.68,267.537L2148,267.537L2148,251.369C2148.28,240.347 2146.59,229.363 2143.01,218.934C2141.2,209.298 2136.9,200.302 2130.54,192.836M2037.77,232.906C2039.68,225.384 2043.53,218.497 2048.95,212.946C2054.89,207.031 2063.04,203.87 2071.41,204.239C2081.39,204.239 2090.05,206.734 2095.01,212.946C2100,217.936 2102.49,225.421 2103.72,232.906L2037.77,232.906M2296.23,181.933C2283.76,170.755 2265.17,165.765 2242.81,165.765C2229.14,166.153 2215.67,169.116 2203.09,174.498C2191.92,180.711 2180.64,189.468 2174.53,201.943L2201.97,228.041C2213.15,209.403 2225.57,203.091 2242.96,203.091C2251.09,202.875 2259.05,205.526 2265.42,210.576C2271.16,215.012 2274.41,221.965 2274.13,229.214L2274.13,237.921C2264.12,234.545 2253.62,232.859 2243.06,232.931C2221.94,232.931 2204.54,237.921 2190.87,247.901C2177.2,257.881 2170.91,272.851 2170.91,290.167C2170.91,306.334 2175.9,318.759 2187.05,328.69C2198.2,338.62 2212,342.362 2228.04,342.362C2244.09,342.362 2259.11,336.15 2274.03,324.897L2274.03,338.57L2316.27,338.57L2316.27,229.189C2316.27,209.229 2310.05,193.136 2296.31,181.958M2220.51,273.924C2225.5,270.207 2231.69,268.934 2240.47,268.934C2251.5,269.306 2262.4,271.402 2272.78,275.147L2272.78,291.314C2262.5,300.361 2249.2,305.24 2235.5,304.987C2228.02,304.987 2221.83,303.74 2218.04,299.997C2214.25,296.254 2211.83,292.512 2211.83,287.522C2212.71,281.959 2215.87,277.006 2220.53,273.849M2481.36,184.428C2468.89,170.755 2452.79,164.468 2431.66,164.468C2414.26,164.468 2400.6,169.458 2390.67,179.438L2390.67,169.458L2348.4,169.458L2348.4,339.743L2391.89,339.743L2391.89,245.331C2391.89,232.856 2394.39,221.704 2400.6,214.268C2406.76,206.919 2415.97,202.794 2425.55,203.091C2434.19,202.67 2442.53,206.378 2448,213.071C2453.84,221.014 2456.9,230.662 2456.71,240.516L2456.71,339.942L2500,339.942L2500,240.366C2498.75,216.747 2492.54,198.101 2481.36,184.428M1425.2,181.933C1412.73,170.755 1394.14,165.765 1371.78,165.765C1358.1,166.139 1344.6,169.093 1332.01,174.473C1320.84,180.686 1309.56,189.443 1303.44,201.918L1330.89,228.016C1342.07,209.378 1354.49,203.066 1371.88,203.066C1380.01,202.85 1387.96,205.501 1394.34,210.551C1400.08,214.987 1403.33,221.94 1403.05,229.189L1403.05,237.896C1393.04,234.52 1382.54,232.834 1371.98,232.906C1350.86,232.906 1333.46,237.896 1319.79,247.876C1306.12,257.856 1299.83,272.826 1299.83,290.142C1299.83,306.309 1304.82,318.735 1315.97,328.665C1327.12,338.595 1340.92,342.337 1356.96,342.337C1373.01,342.337 1388.03,336.125 1402.95,324.872L1402.95,338.545L1445.19,338.545L1445.19,229.189C1445.19,209.229 1437.7,193.136 1425.23,181.958M1348.18,273.924C1353.17,270.207 1359.36,268.934 1368.14,268.934C1379.17,269.306 1390.07,271.402 1400.45,275.147L1400.45,291.314C1390.17,300.361 1376.87,305.24 1363.18,304.987C1355.69,304.987 1349.5,303.74 1345.71,299.997C1341.92,296.254 1339.5,292.512 1339.5,287.522C1341.36,282.377 1344.33,277.708 1348.21,273.849M1677.55,343.46L1677.5,343.46C1609.31,343.46 1553.2,287.348 1553.2,219.159C1553.2,150.969 1609.31,94.857 1677.5,94.857C1745.69,94.857 1801.8,150.969 1801.8,219.159C1801.55,287.237 1745.62,343.188 1677.55,343.46M1677.55,137.148L1677.42,137.148C1633.1,137.148 1596.63,173.617 1596.63,217.936C1596.63,262.255 1633.1,298.724 1677.42,298.724C1721.72,298.724 1758.18,262.286 1758.21,217.986L1758.21,217.811C1758.21,173.588 1721.82,137.197 1677.6,137.197C1677.55,137.197 1677.5,137.198 1677.45,137.198" style="fill:rgb(0,128,255);fill-rule:nonzero;"/>
    </g>
</svg>
